img/clock.svg

<svg width="50" height="50" viewBox="0 0 50 50" fill="none" xmlns="http://www.w3.org/2000/svg">
<path d="M16.2563 30.7344L23.5714 26.2745V16.9687" stroke="white" stroke-width="1.5" stroke-linecap="round" stroke-linejoin="round"/>
<path d="M22.9992 43.0075C13.3131 43.011 5.35943 35.3519 4.99768 25.6725C4.63592 15.9932 11.9957 7.76171 21.655 7.04223C31.3144 6.32274 39.8124 13.373 40.8886 22.9991" stroke="white" stroke-width="1.5" stroke-linecap="round" stroke-linejoin="round"/>
<path d="M39.6721 35.6704L36.3387 39.0058L34.3379 37.005" stroke="white" stroke-width="1.5" stroke-linecap="round" stroke-linejoin="round"/>
<path fill-rule="evenodd" clip-rule="evenodd" d="M41.0066 45.0083H33.0033C30.7933 45.0083 29.0016 43.2167 29.0016 41.0066V33.0033C29.0016 30.7933 30.7933 29.0016 33.0033 29.0016H41.0066C43.2167 29.0016 45.0083 30.7933 45.0083 33.0033V41.0066C45.0083 43.2167 43.2167 45.0083 41.0066 45.0083Z" stroke="white" stroke-width="1.5" stroke-linecap="round" stroke-linejoin="round"/>
</svg>

<svg width="50" height="50" fill="none" xmlns="http://www.w3.org/2000/svg"><path d="M16.256 30.734l7.315-4.46V16.97" stroke="#fff" stroke-width="1.5" stroke-linecap="round" stroke-linejoin="round"/><path d="M23 43.008c-9.687.003-17.64-7.656-18.002-17.336-.362-9.679 6.998-17.91 16.657-18.63 9.66-.72 18.157 6.331 19.234 15.957M39.672 35.67l-3.333 3.336-2.001-2.001" stroke="#fff" stroke-width="1.5" stroke-linecap="round" stroke-linejoin="round"/><path clip-rule="evenodd" d="M41.007 45.008h-8.004a4.002 4.002 0 01-4.001-4.001v-8.004a4.002 4.002 0 014.001-4.001h8.004a4.002 4.002 0 014.001 4.001v8.004a4.002 4.002 0 01-4.001 4.001z" stroke="#fff" stroke-width="1.5" stroke-linecap="round" stroke-linejoin="round"/></svg>
